packages/assets/static/images/icons/calendar.svg

<svg width="24" height="24" viewBox="0 0 24 24" xmlns="http://www.w3.org/2000/svg">
<path d="M20 2.625H18.125V2.25C18.125 1.95163 18.0065 1.66548 17.7955 1.4545C17.5845 1.24353 17.2984 1.125 17 1.125C16.7016 1.125 16.4155 1.24353 16.2045 1.4545C15.9935 1.66548 15.875 1.95163 15.875 2.25V2.625H9.125V2.25C9.125 1.95163 9.00647 1.66548 8.7955 1.4545C8.58452 1.24353 8.29837 1.125 8 1.125C7.70163 1.125 7.41548 1.24353 7.2045 1.4545C6.99353 1.66548 6.875 1.95163 6.875 2.25V2.625H5C4.50272 2.625 4.02581 2.82254 3.67417 3.17417C3.32254 3.52581 3.125 4.00272 3.125 4.5V19.5C3.125 19.9973 3.32254 20.4742 3.67417 20.8258C4.02581 21.1775 4.50272 21.375 5 21.375H20C20.4973 21.375 20.9742 21.1775 21.3258 20.8258C21.6775 20.4742 21.875 19.9973 21.875 19.5V4.5C21.875 4.00272 21.6775 3.52581 21.3258 3.17417C20.9742 2.82254 20.4973 2.625 20 2.625ZM6.875 4.875C6.875 5.17337 6.99353 5.45952 7.2045 5.6705C7.41548 5.88147 7.70163 6 8 6C8.29837 6 8.58452 5.88147 8.7955 5.6705C9.00647 5.45952 9.125 5.17337 9.125 4.875H15.875C15.875 5.17337 15.9935 5.45952 16.2045 5.6705C16.4155 5.88147 16.7016 6 17 6C17.2984 6 17.5845 5.88147 17.7955 5.6705C18.0065 5.45952 18.125 5.17337 18.125 4.875H19.625V7.125H5.375V4.875H6.875ZM5.375 19.125V9.375H19.625V19.125H5.375Z"/>
</svg>

<svg viewBox="0 0 24 24" xmlns="http://www.w3.org/2000/svg" aria-hidden="true" fill="currentColor" height="24px" width="24px"><path d="M20 2.625h-1.875V2.25a1.125 1.125 0 1 0-2.25 0v.375h-6.75V2.25a1.125 1.125 0 0 0-2.25 0v.375H5A1.875 1.875 0 0 0 3.125 4.5v15A1.875 1.875 0 0 0 5 21.375h15a1.875 1.875 0 0 0 1.875-1.875v-15A1.875 1.875 0 0 0 20 2.625M6.875 4.875a1.125 1.125 0 0 0 2.25 0h6.75a1.125 1.125 0 1 0 2.25 0h1.5v2.25H5.375v-2.25zm-1.5 14.25v-9.75h14.25v9.75z"/></svg>
